X:22
T: Uccu vendég kóé múlattál...
O: Gyergyóremete (Csík), ?, 1910
Q: "Tempo guisto" 1/4=96
M:2/4
L:1/4
K:F
d/f/e/(d/{e/}) | f e | d (c{g}) | 
g/<f/e/<d/ | c (B{A}) | G G/z/ | 
(3:2:2 B/B (3:2:2 d/(d{B})) | c(B {A<G}) | A (d{g}) | 
g/<f/e/d/ | c (B{A}) | A G/ z/ | 

